X: 8
T: Paddy Fahey's
R: reel
M: 4/4
L: 1/8
K: Ddor
D2 A,D FEFG | Ad^cA ~d3 e | ~f2 df edcA | dcAG FDCE | D2 A,D FEFG | Ad^cA d3 e | f/2g/2agf edcA |1 dcAG FDCE :|2 dcAG FDdc |]
Ad~d2 adfd|~c3G EFGc|Ad~d2 adfd|~c3d edcA|~a2^ga ABcA|dcAG FDCE|~D2 A,D FEFG |Ad^cA d3=c|
Ad~d2 adfd|c2Gc EcGc|Ad~d2 Adfd|~c3d edcA|~a2^ga ABcA|dcAG FDCE|~D2 A,D FEFG |Ad^cA d3E||


Tune 463	Setting 13349

